www/assets/icons/spa.svg

<svg xmlns="http://www.w3.org/2000/svg" width="24" height="24" viewBox="0 0 24 24" fill='currentColor'><path d="M15.49 9.63c-.18-2.79-1.31-5.51-3.43-7.63a12.2 12.2 0 0 0-3.55 7.63c1.28.68 2.46 1.56 3.49 2.63 1.03-1.06 2.21-1.94 3.49-2.63m-6.5 2.65c-.14-.1-.3-.19-.45-.29.15.11.31.19.45.29M12 15.45C9.85 12.17 6.18 10 2 10c0 5.32 3.36 9.82 8.03 11.49.63.23 1.29.4 1.97.51.68-.12 1.33-.29 1.97-.51C18.64 19.82 22 15.32 22 10c-4.18 0-7.85 2.17-10 5.45"/></svg>

<svg width="24" height="24" viewBox="0 0 24 24" xmlns="http://www.w3.org/2000/svg" fill='currentColor'><path d="M15.49 9.63C15.31 6.84 14.18 4.12 12.06 2C9.92 4.14 8.74 6.86 8.51 9.63C9.79 10.31 10.97 11.19 12 12.26C13.03 11.2 14.21 10.32 15.49 9.63ZM8.99 12.28C8.85 12.18 8.69 12.09 8.54 11.99C8.69 12.1 8.85 12.18 8.99 12.28ZM12 15.45C9.85 12.17 6.18 10 2 10C2 15.32 5.36 19.82 10.03 21.49C10.66 21.72 11.32 21.89 12 22C12.68 21.88 13.33 21.71 13.97 21.49C18.64 19.82 22 15.32 22 10C17.82 10 14.15 12.17 12 15.45Z"/></svg>
